!!!OTL: Hahnpfalzlied Es fangt schon das Frauhjahr an,
!!!ARE: Europa, Mitteleuropa, Deutschland, Bayern, Bad Kreuth
!!!SCT: D0121
!!!YEM: Copyright 1995, estate of Helmut Schaffrath.
**kern
*ICvox
*Ivox
*M3/4
*k[]
*C:
{4c
=1
4d
4f
4B
=2
4c
4e
4c}
=3
{4a
4f
4a
=4
4g
8cc
8e
4g}
=5
{4dd
4g
4g
=6
4.ee
8cc
4e}
=7
{4g
4d
4g
=8
2c}
==
!!!AGN: Jaeger - Lied
!! Inzipit = Variante zum Lied
!!!ONB: ESAC (Essen Associative Code) Database: DVA
!!!AMT: simple triple
!!!AIN: vox
!!!EED: Helmut Schaffrath
!!!EEV: 1.0
*-
